img/icons/olive.svg

<svg width="19" height="19" viewBox="0 0 19 19" fill="none" xmlns="http://www.w3.org/2000/svg">
<path d="M16.9486 2.35351C15.1355 2.4089 13.3364 2.69014 11.5929 3.19069C8.21747 -0.505399 3.53872 2.06554 3.49122 2.09226C3.45409 2.11392 3.42207 2.14331 3.39732 2.17845C3.37257 2.21359 3.35568 2.25365 3.34779 2.2959C3.33991 2.33815 3.34121 2.3816 3.35161 2.4233C3.36202 2.465 3.38128 2.50398 3.40809 2.53757C4.43231 3.80226 6.52825 4.11398 8.33622 4.11398C8.67464 4.11398 9.00122 4.1021 9.30997 4.08726C6.2759 5.6221 5.38825 7.70616 5.16856 8.39491C3.25965 8.54929 1.74262 10.6007 1.74262 13.1004C1.69282 17.2641 5.93326 19.6579 8.25016 16.0394C6.8381 15.1081 6.0485 13.4719 6.02353 11.5091C6.02014 10.7315 6.16629 9.96048 6.45403 9.23804C6.52668 9.0528 6.61097 8.87234 6.70637 8.69773C6.42128 8.55404 6.11428 8.45873 5.79794 8.4157C6.11856 7.60226 7.26747 5.46179 10.7973 4.10507C10.1423 4.94013 9.79244 5.97401 9.80575 7.03523C7.81903 7.23797 6.56928 9.55472 6.61736 11.5091C6.64697 13.7657 7.87051 15.9004 10.1026 16.0039C12.0264 16.0038 13.5909 13.988 13.5909 11.5091C13.5909 9.16085 12.1837 7.2282 10.3995 7.03524C10.3955 6.83679 10.4064 6.63831 10.4322 6.44149C10.545 5.54493 11.017 3.96852 12.8992 3.46977C14.2392 3.17246 15.6036 2.99757 16.9753 2.94726C17.0529 2.94218 17.1254 2.90688 17.1773 2.84893C17.2292 2.79098 17.2563 2.715 17.2528 2.63729C17.2493 2.55959 17.2155 2.48635 17.1586 2.4333C17.1017 2.38024 17.0263 2.3516 16.9486 2.35351ZM12.3945 11.803C12.3539 11.8066 12.313 11.8015 12.2745 11.7883C12.2359 11.7751 12.2006 11.754 12.1707 11.7263C12.1408 11.6987 12.117 11.6651 12.1008 11.6276C12.0847 11.5902 12.0765 11.5499 12.0768 11.5091C12.0768 10.4612 11.6968 9.46366 11.0853 8.90257C11.0289 8.84894 10.9958 8.77537 10.9931 8.69763C10.9904 8.61989 11.0182 8.54417 11.0706 8.4867C11.123 8.42923 11.1959 8.39459 11.2735 8.3902C11.3512 8.38581 11.4275 8.41202 11.4861 8.46322C12.2164 9.13413 12.6706 10.3009 12.6706 11.5091C12.6719 11.5844 12.6438 11.6573 12.5922 11.7121C12.5407 11.767 12.4697 11.7996 12.3945 11.803Z" fill="white"/>
</svg>

<svg width="19" height="19" viewBox="0 0 19 19" fill="none" xmlns="http://www.w3.org/2000/svg"><path d="M16.949 2.354a21.823 21.823 0 0 0-5.356.837C8.217-.505 3.539 2.066 3.49 2.092a.3.3 0 0 0-.083.446c1.024 1.264 3.12 1.576 4.928 1.576.339 0 .665-.012.974-.027-3.034 1.535-3.922 3.62-4.141 4.308-1.91.154-3.426 2.206-3.426 4.705-.05 4.164 4.19 6.558 6.507 2.94-1.412-.932-2.202-2.568-2.226-4.53a6.066 6.066 0 0 1 .43-2.272c.073-.185.157-.366.252-.54a2.881 2.881 0 0 0-.908-.282c.32-.814 1.47-2.954 5-4.31a4.653 4.653 0 0 0-.992 2.93c-1.987.202-3.237 2.519-3.189 4.473.03 2.257 1.254 4.391 3.486 4.495 1.923 0 3.488-2.016 3.488-4.495 0-2.348-1.407-4.28-3.191-4.474a3.955 3.955 0 0 1 .032-.594c.113-.896.585-2.472 2.467-2.971a22.652 22.652 0 0 1 4.076-.523.297.297 0 0 0-.026-.593Zm-4.555 9.449a.29.29 0 0 1-.317-.294c0-1.048-.38-2.045-.992-2.606a.297.297 0 0 1 .401-.44c.73.671 1.185 1.838 1.185 3.046a.289.289 0 0 1-.276.294Z" fill="#fff"/></svg>
